svgs/duotone/trash-undo.svg

<svg xmlns="http://www.w3.org/2000/svg" viewBox="0 0 448 512"><!--! Font Awesome Pro 6.4.0 by @fontawesome - https://fontawesome.com License - https://fontawesome.com/license (Commercial License) Copyright 2023 Fonticons, Inc. --><defs><style>.fa-secondary{opacity:.4}</style></defs><path class="fa-primary" d="M163.8 0H284.2c12.1 0 23.2 6.8 28.6 17.7L320 32h96c17.7 0 32 14.3 32 32s-14.3 32-32 32H32C14.3 96 0 81.7 0 64S14.3 32 32 32h96l7.2-14.3C140.6 6.8 151.7 0 163.8 0zm54.1 167.9c8.9 9.9 8.1 25-1.8 33.9L182.5 232H240c48.6 0 88 39.4 88 88v40c0 13.3-10.7 24-24 24s-24-10.7-24-24V320c0-22.1-17.9-40-40-40H182.5l33.5 30.2c9.9 8.9 10.7 24 1.8 33.9s-24 10.7-33.9 1.8l-80-72c-5.1-4.6-7.9-11-7.9-17.8s2.9-13.3 7.9-17.8l80-72c9.9-8.9 25-8.1 33.9 1.8z"/><path class="fa-secondary" d="M32 96H416L394.6 466.8c-1.5 25.4-22.5 45.2-47.9 45.2H101.3c-25.4 0-46.5-19.8-47.9-45.2L32 96zm185.8 71.9c-8.9-9.9-24-10.7-33.9-1.8l-80 72c-5.1 4.6-7.9 11-7.9 17.8s2.9 13.3 7.9 17.8l80 72c9.9 8.9 25 8.1 33.9-1.8s8.1-25-1.8-33.9L182.5 280H240c22.1 0 40 17.9 40 40v40c0 13.3 10.7 24 24 24s24-10.7 24-24V320c0-48.6-39.4-88-88-88H182.5l33.5-30.2c9.9-8.9 10.7-24 1.8-33.9z"/></svg>

<svg xmlns="http://www.w3.org/2000/svg" viewBox="0 0 448 512"><!--! Font Awesome Pro 6.3.0 by @fontawesome - https://fontawesome.com License - https://fontawesome.com/license (Commercial License) Copyright 2023 Fonticons, Inc. --><defs><style>.fa-secondary{opacity:.4}</style></defs><path class="fa-primary" d="M284.2 0C296.3 0 307.4 6.848 312.8 17.69L320 32H416C433.7 32 448 46.33 448 64C448 81.67 433.7 96 416 96H32C14.33 96 0 81.67 0 64C0 46.33 14.33 32 32 32H128L135.2 17.69C140.6 6.848 151.7 0 163.8 0H284.2zM217.8 167.9C226.7 177.8 225.9 192.1 216.1 201.8L182.5 232H240C288.6 232 328 271.4 328 320V360C328 373.3 317.3 384 304 384C290.7 384 280 373.3 280 360V320C280 297.9 262.1 280 240 280H182.5L216.1 310.2C225.9 319 226.7 334.2 217.8 344.1C208.1 353.9 193.8 354.7 183.9 345.8L103.9 273.8C98.89 269.3 96 262.8 96 256C96 249.2 98.89 242.7 103.9 238.2L183.9 166.2C193.8 157.3 208.1 158.1 217.8 167.9H217.8z"/><path class="fa-secondary" d="M32 96H416L394.6 466.8C393.1 492.2 372.1 512 346.7 512H101.3C75.87 512 54.86 492.2 53.39 466.8L32 96zM183.9 166.2L103.9 238.2C98.89 242.7 96 249.2 96 256C96 262.8 98.89 269.3 103.9 273.8L183.9 345.8C193.8 354.7 208.1 353.9 217.8 344.1C226.7 334.2 225.9 319 216.1 310.2L182.5 280H240C262.1 280 280 297.9 280 320V360C280 373.3 290.7 384 304 384C317.3 384 328 373.3 328 360V320C328 271.4 288.6 232 240 232H182.5L216.1 201.8C225.9 192.1 226.7 177.8 217.8 167.9C208.1 158.1 193.8 157.3 183.9 166.2V166.2z"/></svg>
